findly-builder/apps/searchassist/src/assets/icons/validate.svg

<svg width="14" height="14" viewBox="0 0 14 14" fill="none" xmlns="http://www.w3.org/2000/svg">
<path d="M7 0.5C3.41797 0.5 0.5 3.41413 0.5 6.99804C0.5 7.26628 0.716862 7.48373 0.984375 7.48373H1.01562C1.28314 7.48373 1.5 7.26628 1.5 6.99804C1.5 3.95857 3.95703 1.50271 7 1.50271C8.63281 1.50271 10.0898 2.21949 11.0938 3.34754L10.3077 4.133C10.1814 4.25924 10.2705 4.4756 10.4489 4.4756H13.3C13.4105 4.4756 13.5 4.38581 13.5 4.27505V1.42518C13.5 1.24674 13.285 1.15717 13.1589 1.28305L11.8008 2.6386C10.6133 1.33037 8.90625 0.5 7 0.5ZM13 6.48102C12.7239 6.48102 12.5 6.70548 12.5 6.98237C12.5 10.0336 10.043 12.4973 7 12.4973C5.35938 12.4973 3.90234 11.7727 2.89453 10.6329L3.69373 9.8315C3.81973 9.70517 3.73049 9.48915 3.55231 9.48915H0.7C0.589543 9.48915 0.5 9.57894 0.5 9.6897V12.5497C0.5 12.7284 0.715428 12.8179 0.841421 12.6915L2.1875 11.3418C3.37891 12.6618 5.08984 13.5 7 13.5C10.5859 13.5 13.5 10.578 13.5 6.98237C13.5 6.70548 13.2761 6.48102 13 6.48102Z" fill="#202124"/>
</svg>

<svg width="14" height="14" fill="none" xmlns="http://www.w3.org/2000/svg"><path d="M7 .5C3.418.5.5 3.414.5 6.998c0 .268.217.486.484.486h.032a.485.485 0 0 0 .484-.486A5.491 5.491 0 0 1 7 1.503a5.46 5.46 0 0 1 4.094 1.845l-.786.785a.2.2 0 0 0 .14.343H13.3a.2.2 0 0 0 .2-.2v-2.85a.2.2 0 0 0-.341-.143L11.8 2.639A6.467 6.467 0 0 0 7 .5Zm6 5.981a.5.5 0 0 0-.5.501A5.5 5.5 0 0 1 7 12.497a5.457 5.457 0 0 1-4.105-1.864l.799-.801a.2.2 0 0 0-.142-.343H.7a.2.2 0 0 0-.2.2v2.86a.2.2 0 0 0 .341.143l1.347-1.35A6.462 6.462 0 0 0 7 13.5c3.586 0 6.5-2.922 6.5-6.518a.5.5 0 0 0-.5-.501Z" fill="#202124"/></svg>
